!!!!SEGMENT: pl-wtm--r-2031--002_smietanski-emil-wladyslaw--grand-concert-op-25-romanza.krn
!!!cenid: 18xx:2011
!!!COM: Śmietański, Emil Władysław
!!!COM-rismID:
!!!CDT: 1845-1886
!!!CNT: Polish
!!!OPR: Grand Concert op. 25
!!!OTL: Romanza
!!!OMV: 002
!!!PDT: 1869
!!!AGN: Secular
!!!SMS-siglum: PL-Wtm
!!!SMS-shelfmark: R 2031
!!!SMS-shelfwork: 001-002 M
!!!SMS-variant:
!!!SMS-altvar:
!!!NIFC-rismSourceID: 1001112558
!!!NIFC-islandoraID: pl-wtm:29548
!!!URL-pdf-islandora: https://repozytorium.nifc.pl/islandora/object/pl-wtm%3A29548/datastream/PDF/view
!!!URL-scan: https://polish.musicsources.pl/pl/lokalizacje/galeria/rekopisy/6523 @EN{Scan on Polish Music Herritage in Open Access Website} @PL{Skany w portalu Dziedzictwo Muzyki Polskiej w otwartym dostępie}
!!!ONB-nifc: UWAGA: części Koncertu: 1. Maestoso, 2. Romanza, 3. Finale
!!!OMD: Andante.
!!!AIN: 1 empty
!!!key:
**kern	**kern
*part1	*part1
*staff2	*staff1
*Iempty	*Ipiano
*	*I"Piano
*	*I'pf
*clefF4	*clefG2
*k[f#c#]	*k[f#c#]
*D:	*D:
*M6/8	*M6/8
=1	=1
!LO:TX:t=P:problem=mixed beam	!
8DDD/L	4.dd 4.a 4.d\
8F# 8D\	.
8dJ 8F#\	.
8DD\L	4.cc# 4.b-X 4.c#\
8G 8D\	.
8c#J 8G\	.
=2	=2
!LO:TX:t=P:problem=mixed beam	!
8DDD/L	8.ddL 8.a 8.d\
8F# 8D\	.
.	16cc#\L
8dJ 8F#\	16dd\
.	16ff#\JJ
!LO:TX:t=P:problem=mixed beam	!
8FFF#/L	4aa 4dd 4a\
8d 8F#\	.
8aJ 8d\	16ff#\LL
.	16dd\JJ
=3	=3
*	*^
!LO:TX:t=P:problem=mixed beam	!	!
8GGG/L	4ee 4dd\	4ryy
8e 8G\	.	.
8bJ 8e 8d\	16dd#X/LL	8ddny\
.	16ee/JJ	.
!LO:TX:t=P:problem=mixed beam	!	!
8AAA/L	8ggL 8cc# 8g\	8ryy
8g 8A\	8ff# 8cc#\	8ryy
8cc#J 8g 8c#\	8eeJ 8cc#\	8ryy
*	*v	*v
=4	=4
!LO:TX:t=P:problem=mixed beam	!
8DD/L	8.ddL 8.f#\
8d 8F#\	.
.	16cc#\L
8dJ 8G#X 8E#X\	16dd 16e#X\
.	16bb\JJ
!LO:TX:t=P:problem=mixed beam	!
8DD/L	4.aa 4.dd 4.f#\
8d 8F#\	.
8aJ 8d\	.
=5	=5
*	*^
!LO:TX:t=P:problem=mixed beam	!	!
8DDD/L	4.ryy	4.dd 4.a 4.d\
8F# 8D\	.	.
8dJ 8F#\	.	.
!LO:TX:t=P:problem=mixed beam	!	!
8DD/L	4.cc#tt/	4.b-X 4.g 4.c#\
8G 8D\	.	.
8c#J 8G\	.	.
*	*v	*v
!!LO:LB:g=original
=6	=6
!LO:TX:t=P:problem=mixed beam	!
8DDD/L	8.ddL 8.f# 8.d\
8F# 8D\	.
.	16cc#\L
8dJ 8F#\	16dd\
.	16ff#\JJ
!LO:TX:t=P:problem=mixed beam	!LO:N:vis=8
8FFF#/L	4aa 4ccn 4aL\
8cn 8D#X\	.
8aJ 8c\	16gg#XL 16cc\
.	16ff#\JJ
=7	=7
!LO:TX:t=P:problem=mixed beam	!
8EEE/L	16eeLL 16cc# 16a\
.	16eee 16ccc#\
8c# 8E\	16ccc# 16aa\
.	16aa 16ee\
8aJ 8c#\	16gg 16cc#\
.	16ff#JJ 16cc#\
!LO:TX:t=P:problem=mixed beam	!
8EEE/L	16eeLL 16dd\
.	16ee#X 16dd\
8d 8E\	16ff# 16dd\
.	16cc# 16g\
8dJ 8G\	16dd 16g\
.	16gJJ 16d\
=8	=8
!LO:TX:t=P:problem=mixed beam	!
8AAA/L	4b 4g 4d\
8G#X 8Fn 8AA\	.
8E\J	32a#XLLL 32g 32d\
.	32b\
.	32cc#\
.	32b\JJJ
!LO:TX:t=P:problem=mixed beam	!
8AAA/L	4a# 4c#\
8E 8AA\	.
8AJ 8E\	8a# 8c#\
=9	=9
!LO:TX:t=P:problem=mixed beam	!
8AAA/L	8.aL 8.c#\
8Fn\	.
.	16b-XL 16d\
8dJ 8B-X\	16dd 16fn\
.	16ffnJJ 16b-\
8AA\L	4bb-X 4dd\
8B-\	.
8b-XJ 8d 8Fn\	8bb- 8dd\
=10	=10
8AA\L	8.bb-XL 8.cc#\
8A\	.
.	16aa\L
8aJ 8c# 8E\	16gg#X 16cc#\
.	16aa\JJ
!!LO:LB:g=original
!LO:TX:t=P:problem=mixed beam	!LO:TX:t=P:problem=arpeggio z prawej strony
8CC#/L	4eee: 4aa:\
8A\	.
8gJ 8c# 8Gn\	8ggn 8cc#\
=11	=11
!LO:TX:t=P:problem=mixed beam	!
8DL 8DD/	16ggLL 16dd\
.	16ffn\
8A\	16aa\
.	16ccc#\
8fnJ 8d 8Fn\	16ddd 16dd\
.	16ff\JJ
8GG\L	16ffLL 16b-X\
.	16ee\
8d 8B-X 8E\	16gg 16b-\
.	16bb-X\
8c#J 8G 8AA\	16aa 16cc# 16g\
.	16cc#\JJ
=12	=12
!LO:TX:t=P:problem=mixed beam	!
8DD/L	4dd 4b-X 4g\
8d 8B-X 8G\	.
8D\J	32cc#LLL 32b- 32g\
.	32dd\
.	32ffn\
.	32ee\JJJ
!LO:TX:t=P:problem=mixed beam	!
8DL 8AA 8DD/	4dd 4fn\
8d 8Fn\	.
8A\J	8dd 8f\
=13	=13
!LO:TX:t=P:problem=mixed beam	!
.	32qqa 32qqc#\
8AAA/L	8.aL 8.c#\
8E\	.
.	16b-XL 16d\
8dJ 8B-X 8Fn\	16dd 16fn\
.	16ffnJJ 16b-\
8AA\L	4bb-X 4dd\
8B-\	.
8b-XJ 8d 8F\	8bb- 8dd\
=14	=14
!LO:TX:t=P:problem=mixed beam	!
8CCn/L	8.bb-XL 8.dd\
8cn\	.
.	16bb-L 16ee\
8b-XJ 8B-X 8E\	16bb- 16dd\
.	16bb-JJ 16ee\
8AL 8FFn\	4aa 4ffn\
8c\	.
8aJ 8fn 8A\	8fffn 8aa 8ff\
!!LO:LB:g=original
=15	=15
!LO:TX:t=P:problem=mixed beam	!
8BB-XL 8BBB-X/	16fffnLL 16bb-X 16dd\
.	16ddd\
8d\	16bb- 16dd\
.	16cccn\
8b-XJ 8B-X 8Fn\	16ccc#X 16dd\
.	16ddd\JJ
8BB-\L	16dddLL 16dd\
.	16gg#Xm\
8d\	16ggn\
.	16gg#X\
8g#XJ 8B- 8E\	16ddd 16gg# 16dd\
.	16gg#\JJ
=16	=16
!LO:TX:t=P:problem=mixed beam	!
8AAA/L	8.aaL 8.cc#\
8aJ 8c# 8E\	.
.	16eeL 16cc#\
8r	16ffn 16cc#\
.	16ggJJ 16cc#\
8AA\L	8.aaL 8.cc#\
8g#XJ 8d 8E\	.
.	16bb-XL 16dd\
8r	16eee 16bb-\
.	16bb-JJ 16dd\
=17	=17
!LO:TX:t=P:problem=mixed beam	!
8AAL 8AAA/	8.aaL 8.cc#\
8aJ 8c# 8E\	.
.	16eeL 16cc#\
8r	16ffn 16cc#\
.	16ggJJ 16cc#\
8AA\L	8.aaL 8.cc#\
8g#XJ 8d 8Fn\	.
.	16bb-XL 16dd\
8r	16eee 16bb-\
.	16bb-JJ 16dd\
=18	=18
*	*^
!LO:TX:t=P:problem=mixed beam	!	!
8AAL 8AAA/	8aa 8cc#\	8ryy
8c# 8E\	4aatt/	4a\
8aJ 8c#\	.	.
!	!LO:TX:t=P:problem=w źródle tryl bez bemola	!
8AA\L	4.aatt/	4.b-X\
8d 8Fn\	.	.
8aJ 8d\	.	.
!!LO:LB:g=original
=19	=19	=19
!	!LO:TX:t=P:problem=w źródle tryl z kasownikiem	!
8AA\L	4.aaTT/	4bn\
8d#X 8F#X\	.	.
8aJ 8d#\	.	8ccn\
8AA\L	4.aaTT/	4.cc#X\
8c# 8G\	.	.
8aJ 8c#\	.	.
*	*v	*v
=20	=20
!LO:TX:t=P:problem=mixed beam	!
8DDL 8DDD/	4.dd 4.a 4.d\
8F# 8D\	.
8dJ 8F#\	.
!LO:TX:t=P:problem=mixed beam	!
8DD/L	4.cc# 4.b-X 4.c#\
8G 8D\	.
8c#J 8G\	.
=21	=21
!LO:TX:t=P:problem=mixed beam	!
8DDD/L	8.ddL 8.a 8.d\
8F# 8D\	.
.	16cc#\L
8dJ 8F#\	16dd\
.	16ff#\JJ
!LO:TX:t=P:problem=mixed beam	!
8FFF#/L	4aa 4dd 4a\
8d 8F#\	.
8aJ 8d\	16ff#\LL
.	16dd\JJ
=22	=22
*	*^
!LO:TX:t=P:problem=mixed beam	!	!
8GGG/L	4ee 4ddTT\	4ryy
8e 8G\	.	.
8bJ 8d\	16dd#X/LL	4ddny\
.	16ee/JJ	.
!LO:TX:t=P:problem=mixed beam	!	!
8AAA/L	8ggL 8cc# 8g\	.
8g 8A\	8ff# 8cc#\	4ryy
8cc#J 8g 8c#\	8eeJ 8cc#\	.
*	*v	*v
=23	=23
!LO:TX:t=P:problem=mixed beam	!
8DD/L	8.ddL 8.f#\
8d 8F#\	.
.	16cc#\L
8dJ 8G#X 8E#X\	16dd 16e#X\
.	16bb\JJ
!LO:TX:t=P:problem=mixed beam	!
8DD/L	4.aa 4.dd 4.f#\
8d 8F#\	.
8aJ 8d\	.
!!LO:LB:g=original
=24	=24
!LO:TX:t=P:problem=mixed beam	!
8DDD/L	4.dd 4.a 4.d\
8F# 8D\	.
8dJ 8F#\	.
!LO:TX:t=P:problem=mixed beam	!
8DD/L	4.cc# 4.b-X 4.gTT\
8G 8D\	.
8c#J 8G\	.
=25	=25
8DD\L	8.ddL 8.f# 8.d\
8F# 8D\	.
.	16cc#\L
8dJ 8F#\	16dd\
.	16ff#\JJ
!LO:TX:t=P:problem=mixed beam	!
8FF#L 8FFF#/	8.aaL 8.dd 8.a\
8d 8F#\	.
.	16fff#L 16aa 16dd\
8aJ 8d\	16eee 16aa 16dd\
.	16dddJJ 16aa 16dd\
=26	=26
!LO:TX:t=P:problem=mixed beam	!
8GGL 8GGG/	16ccc#LL 16ee 16dd\
.	16bb 16ee 16dd\
8e 8G\	16aa#X 16ee 16dd\
.	16bb 16ee 16dd\
8bJ 8d\	16ccc# 16ee 16dd\
.	16dddJJ 16ee 16dd\
!LO:TX:t=P:problem=mixed beam	!
8AAL 8AAA/	16dddLL 16dd\
.	16ee 16ddM\
8e 8d 8G\	16dd#X 16ddny\
.	16ee 16ddn\
8c#J 8G 8AA\	16aa# 16cc# 16g\
.	16cc#JJ 16g\
=27	=27
!	!LO:TX:t=P:problem=arpeggio z prawej strony
8DD\L	4dd: 4b-X: 4g:\
8d 8B-X 8G\	.
8D\J	32cc#LLL 32b- 32g\
.	32dd\
.	32ff#\
.	32ee\JJJ
8DL 8AA 8DD\	4.dd 4.f#\
8d 8F#\	.
8A\J	.
!!LO:PB:g=original
=28	=28
!LO:TX:t=P:problem=mixed beam	!
8BBL 8BBB/	16.bLL 16.d\
.	32bJJk 32d\
8d 8F#\	32bLLL 32d\
.	32dd 32f#\
.	32dd 32f#\
.	32ff# 32b\
8B\J	32ff# 32b\
.	32bb 32dd\
.	32bb 32dd\
.	32dddJJJ 32ff#\
8BB\L	32dddLLL 32ff#\
.	32ccc# 32ee#X\
.	32ddd 32ff#\
.	32aa#X 32cc#\
8d 8F#\	32bb 32dd\
.	32ee# 32cc#\
.	32ff# 32dd\
.	32cc# 32a#X\
8B\J	32dd 32b\
.	32a# 32e#X\
.	32b 32f#\
.	32ddJJJ 32b\
=29	=29
!LO:TX:t=P:problem=mixed beam	!
8GG#X/L	32ddLLL 32b\
.	32cc# 32a#X\
.	32cc# 32a#\
.	32dd 32b\
8B 8E#X\	32dd 32b\
.	32cc# 32a#\
.	32cc# 32a#\
.	32dd 32b\
8e#XJ 8c#\	32dd 32b\
.	32cc# 32a#\
.	32cc# 32a#\
.	32ddJJJ 32b\
!LO:TX:t=P:problem=mixed beam	!
8FF#/L	32cc#LLL 32a#\
.	32ff#\
.	32ff# 32a#\
.	32ee#X\
8A#X 8En\	32ee# 32a#\
.	32een\
.	32ee 32a#\
.	32dd#X\
8e#J 8A#\	32dd# 32a#\
.	32ddn\
.	32dd 32a#\
.	32cc#\JJJ
=30	=30
!LO:TX:t=P:problem=mixed beam	!
8GGL 8GGG/	16bLL 16g\
.	32dddL 32gg\
.	32ddd 32gg\
8g 8B\	32ddd 32gg\
.	32bb 32dd\
.	32bb 32dd\
.	32bb 32dd\
8d\J	32bb 32dd\
.	32gg 32b\
.	32gg 32b\
.	32ggJJJ 32b\
!!LO:LB:g=original
!LO:TX:t=P:problem=mixed beam	!
8GG/L	32ggLLL 32b\
.	32ff# 32b\
.	32ff# 32b\
.	32ff# 32b\
8B 8C#\	32ff# 32b\
.	32ee#X 32b\
.	32ee# 32b\
.	32ee# 32b\
8e#XJ 8B\	32ee# 32b\
.	32cc# 32b\
.	32cc# 32b\
.	32cc#JJJ 32b\
=31	=31
8EL 8FF#\	32ff#LLL 32a#X\
.	32gg 32b\
.	32gg#X 32b#X\
.	32aa 32cc#\
8f# 8A#X\	32aa#X 32cc##X\
.	32bb 32dd#X\
.	32cccn 32ee\
.	32ccc#X 32ee#X\
8e#XJ 8B\	32ddd 32ff#\
.	32ddd#X 32ff##X\
.	32eee 32gg#X\
!	!LO:SIC:v:n=2:s=32aan
.	32fffnJJJ 32aa#\
8F#\L	32fff#XLLL 32aa#X\
.	32fffn 32aan\
.	32fff#X 32aa#X\
.	32aaa#X 32ccc#\
*	*8va
8f#J 8A#\	32aaa#X 32ccc#\
.	32ggg##X 32bb#X\
.	32aaa# 32ccc#\
.	32cccc#JJJ 32fff#\
32cc# 32f#\	32ffff# 32aaa#\
*	*X8va
32r	32r
16r	16r
=32	=32
8F# 8AA 8DD/	16.f#LL 16.d/
.	32f#JJk 32d/
8dL 8F#\	32f#LLL 32d/
.	32a 32f#/
.	32a 32f#/
.	32dd 32a/
8dJ 8A\	32dd 32a/
.	32ff# 32dd/
.	32ff# 32dd/
.	32aaJJJ 32ff#/
8D\L	32aaLLL 32ff#\
.	32bb-X 32gg\
.	32bb- 32gg\
.	32bb- 32gg\
8c# 8G\	32bb- 32gg\
.	32eee 32gg\
.	32eee 32gg\
.	32eee 32gg\
8b-XJ 8c#\	32eee 32gg\
.	32bb- 32gg\
.	32bb- 32gg\
.	32bb-JJJ 32gg\
!!LO:LB:g=original
=33	=33
!LO:TX:t=P:problem=mixed beam	!
8DD/L	32aaLLL 32ff#\
.	32fff# 32ddd\
.	32ccc# 32gg#X\
.	32ddd 32aa\
8d 8F#\	32gg# 32ee#X\
.	32aa 32ff#\
.	32ee# 32cc#\
.	32ff# 32dd\
8dJ 8A\	32cc# 32g#X\
.	32dd 32a\
.	32g# 32e#X\
.	32aJJJ 32f#\
!LO:TX:t=P:problem=mixed beam	!
8BBB/L	32aLLL 32f#\
.	32ccn 32a\
.	32cc 32a\
.	32b 32g#\
8A 8BB\	32b 32g#\
.	32b-X 32gn\
.	32b- 32g\
.	32a 32f#\
8d#XJ 8A\	32a 32f#\
.	32g#X 32e#\
.	32g# 32e#\
.	32gnJJJ 32en\
=34	=34
!LO:TX:t=P:problem=mixed beam	!
8EL 8EE/	16gLL 16e\
.	32eeL 32g\
.	32b 32e\
8e 8G\	32b 32e\
.	32gg 32b\
.	32gg 32b\
.	32ee 32g\
8B\J	32ee 32g\
.	32bb 32ee\
.	32bb 32ee\
.	32ggJJJ 32b\
!LO:TX:t=P:problem=mixed beam	!
8GG#X/L	32gg#XLLL 32b\
.	32ddd 32ffn\
.	32ddd 32ff\
.	32bb 32dd\
8b 8d 8G#X\	32bb 32dd\
.	32ggg#X 32bb\
.	32ggg# 32bb\
.	32fffn 32gg#\
8fn\J	32fff 32gg#\
.	32dddd 32fff\
.	32dddd 32fff\
.	32bbbJJJ 32ddd\
!!LO:LB:g=original
=35	=35
8AA\L	32aaaLLL 32ccc#\
.	32ggg#X 32bb#X\
.	32aaa 32ccc#\
.	32eeeeJJJ 32gggn\
8c# 8G\	32eeeLLL 32gg\
.	32ddd#X 32ff#\
.	32eee 32gg\
.	32aaaJJJ 32ccc#\
8aJ 8c#\	32aaLLL 32cc#\
.	32gg#X 32b#X\
.	32aa 32cc#\
.	32eeeJJJ 32ggn\
4f# 4A 4D\	32aaLLL 32dd\
.	32ddd# 32ff#\
.	32ccc# 32ee#X\
.	32cccn 32een\
!	!LO:SIC:v:n=1:s=32bbn
.	32bb# 32dd#X\
.	32bb-X 32dd#\
.	32aa 32ff#\
.	32gg 32dd#\
8r	32aa 32ff#\
.	32gg 32dd#\
.	32aa 32ff#\
.	32ggJJJ 32dd#\
=36	=36
!LO:TX:t=P:problem=mixed beam	!
8DL 8DD/	4aa 4ff#tt\
8d 8F#\	.
8a#XJ 8d\	8aa#X 8ff#tt\
!	!LO:TX:t=P:problem=w źródle tryl bez kasownika
8GG\L	4bb 4ggTT\
8e 8G\	.
!	!LO:TX:t=P:problem=w źródle tryl bez kasownika
8bJ 8e\	8bb#X 8ggTT\
=37	=37
8AA\L	4ccc# 4ggTT\
8g 8A\	.
.	32qqbb#X\LLL
.	32qqccc#\JJJ
8cc#J 8g 8c#\	16.fff#LL 16.ccc# 16.gg\
.	32eeeJJk 32gg\
8D\L	8eeeL 8ff#\
8f# 8A\	8ddd 8ff#\
8ddJ 8f#\	8aaJ 8ff#\
!!LO:LB:g=original
=38	=38
!LO:TX:t=P:problem=mixed beam	!
8DL 8DD/	4aa 4ff#tt\
8d 8F#\	.
8a#XJ 8d\	8aa#X 8ff#tt\
!	!LO:TX:t=P:problem=w źródle tryl bez kasownika
8GG\L	4bb 4ggTT\
8e 8E\	.
!	!LO:TX:t=P:problem=w źródle tryl bez kasownika
8bJ 8e\	8bb#X 8ggTT\
=39	=39
8AA\L	4ccc# 4ggTT\
8g 8A\	.
.	32qqbb#X\LLL
.	32qqccc#\JJJ
8cc#J 8g 8c#\	16.fff#LL 16.ccc# 16.gg\
.	32eeeJJk 32gg\
8D\L	8eeeL 8ff#\
8f# 8A\	8ddd 8ff#\
8ddJ 8f#\	8aaaJ 8ff#\
=40	=40
*	*Xtuplet
4.b-X 4.fn 4.d 4.A-X\	48bbb-XLLL 48bb-X\
.	48eee\
.	48fffn\
.	48ccc#\
.	48ddd\
.	48aa\
.	48bb-\
.	48ee\
.	48ffn\
.	48cc#\
.	48dd\
.	48a\
.	48b-X\
.	48e\
.	48fn\
.	48c#\
.	48d\
.	48A\JJJ
!	!LO:TX:t=P:problem=mixed beam
8DL 8AA-X\	8dL 8B-X/
8E-X 8GG\	8e-X 8B-X/
8e-XJ 8G\	8bb-XJ 8b-\
!!LO:LB:g=original
=41	=41
4.b-X 4.fn 4.d 4.A-X\	48bbb-XLLL 48bb-X\
.	48eee\
.	48fffn\
.	48ccc#\
.	48ddd\
.	48aa\
.	48bb-\
.	48ee\
.	48ffn\
.	48cc#\
.	48dd\
.	48a\
.	48b-X\
.	48e\
.	48fn\
.	48c#\
.	48d\
.	48A\JJJ
!	!LO:TX:t=P:problem=mixed beam
8DL 8AA-X\	8dL 8B-X/
8E-X 8GG\	8e-X 8B-/
8e-XJ 8G\	8bb-J 8b-\
=42	=42
4.bn 4.fn 4.d 4.G#X\	48bbbnLLL 48bbn\
.	48ggg#X\
.	48eee\
.	48fffn\
.	48ddd\
.	48aa#X\
.	48bb\
.	48gg#X\
.	48ee\
.	48ffn\
.	48dd\
.	48a#X\
.	48b\
.	48g#X\
.	48e\
.	48fn\
.	48d\
.	48A#X\JJJ
!	!LO:TX:t=P:problem=brak początku ligatury
*Xtuplet	*
88%3FnLLL 88%3GG#X/	[<4.d 4.B/
88%3GGn/	.
88%3FF#/	.
88%3FFn/	.
88%3EE/	.
88%3DD#X/	.
88%3DDn/	.
88%3CC#/	.
88%3CCn/	.
88%3BBB/	.
88%3BBB-X/JJJ	.
!!LO:PB:g=original
=43	=43
!LO:TX:t=P:problem=mixed beam	!
8AAL 8AAA/	8d] 8A 8F#/
8d 8F#\	16.aaLL 16.a\
.	32bbJJk 32b\
8A\J	8aa 8a\
!LO:TX:t=P:problem=mixed beam	!
8AAA/L	8d#X 8cn 8F#/
8d#X 8F#\	16.aaLL 16.a\
.	32bbJJk 32b\
8A\J	8aa 8a\
=44	=44
!LO:TX:t=P:problem=mixed beam	!
8AAL 8AAA/	16e 16c# 16G/
!	!LO:TUP:a:problem=klamra łukowa
.	48a\LLL
.	48gg\
.	48eee\JJJ
!	!LO:TUP:a:problem=klamra łukowa
[8A 8G\	48b-X\LLL
.	48gg\
.	48ddd#X\JJJ
!	!LO:TUP:a:problem=klamra łukowa
.	48bn\LLL
.	48gg\
.	48dddn\JJJ
!	!LO:TUP:a:problem=klamra łukowa
8c#J 8A\]	48ccn\LLL
.	48gg\
.	48ccc#X\JJJ
!	!LO:TUP:a:problem=klamra łukowa
.	48cc#X\LLL
.	48gg\
.	48cccn\JJJ
!	!LO:TUP:a:problem=klamra łukowa
8AA\L	48dd\LLL
.	48gg\
.	48bb\JJJ
!	!LO:TUP:a:problem=klamra łukowa
.	48ee-X\LLL
.	48gg\
.	48bb-X\JJJ
!	!LO:TUP:a:problem=klamra łukowa
8c# 8G\	48een\LLL
.	48gg\
.	48aa\JJJ
!	!LO:TUP:a:problem=klamra łukowa
.	48gg\LLL
.	48gg#X\
.	48aa\JJJ
!	!LO:TUP:a:problem=klamra łukowa
8gJ 8c#\	48ee\LLL
.	48ggn\
.	48aa\JJJ
!	!LO:TUP:a:problem=klamra łukowa
.	48gg\LLL
.	48gg#X\
.	48aa\JJJ
=45	=45
8F# 8AA 8DD/	4aa 4ff#tt\
8dL 8F#\	.
8a#XJ 8d\	8aa#X 8ff#tt\
!	!LO:TX:t=P:problem=w źródle tryl bez kasownika
8GL 8GG\	4bb 4ggTT\
8e 8G\	.
!	!LO:TX:t=P:problem=w źródle tryl bez krzyżyka
8b#XJ 8e\	8bb#X 8gg#XTT\
!!LO:LB:g=original
=46	=46
!LO:TX:t=P:problem=mixed beam	!
8AA/L	4ccc# 4aaTT\
8g 8A\	.
.	32qqbb#X\LLL
.	32qqccc#\JJJ
8cc#J 8g 8c#\	24fff#LL 24ccc# 24bb-X\
.	24aa\
.	24eeeJJ 24gg\
8D\L	8eeeL 8ff#\
8f# 8A\	8ddd 8ff#\
8ddJ 8f#\	8aaJ 8ff#\
=47	=47
8DL 8DD\	4aa 4ff#tt\
8d 8F#\	.
8a#XJ 8d\	8aa#X 8ff#tt\
!	!LO:TX:t=P:problem=w źródle tryl bez kasownika
8GG\L	4bb 4ggTT\
8e 8G\	.
!	!LO:TX:t=P:problem=w źródle tryl bez krzyżyka
8b#XJ 8e\	8bb#X 8gg#XTT\
=48	=48
8AA\L	4ccc# 4aaTT\
8g 8A\	.
.	32qqbb#X\LLL
.	32qqccc#\JJJ
8cc#J 8g 8c#\	24fff#LL 24ccc# 24bb-X\
.	24aa\
.	24eeeJJ 24gg\
8D\L	8eeeL 8ff#\
8f# 8A\	8ddd 8ff#\
8ddJ 8f#\	8aaJ 8ff#\
=49	=49
4.b-X 4.fn 4.d 4.A-X\	48bbb-XLLL 48bb-X\
.	48eee\
.	48fffn\
.	48ccc#\
.	48ddd\
.	48aa\
.	48bb-\
.	48ee\
.	48ffn\
.	48cc#\
.	48dd\
.	48a\
.	48b-X\
.	48e\
.	48fn\
.	48c#\
.	48d\
.	48A\JJJ
!!LO:LB:g=original
!	!LO:TX:t=P:problem=mixed beam
8DL 8AA-X\	8dL 8B-X/
!	!LO:SIC:v:n=1:s=8e-
8E-X 8GG\	8e 8B-X/
8e-XJ 8G\	8bb-J 8b-\
=50	=50
4.b-X 4.fn 4.d 4.A-X\	48bbb-XLLL 48bb-X\
.	48eee\
.	48fffn\
.	48ccc#\
.	48ddd\
.	48aa\
.	48bb-\
.	48ee\
.	48ffn\
.	48cc#\
.	48dd\
.	48a\
.	48b-X\
.	48e\
.	48fn\
.	48c#\
.	48d\
.	48A\JJJ
!LO:TX:t=P:problem=mixed beam	!LO:TX:t=P:problem=mixed beam
8DL 8AA-X/	8dL 8B-X/
8E-X 8GG/	8e-X 8B-/
8e-XJ 8G\	8bb-J 8b-\
=51	=51
4.dd 4.bn 4.fn 4.d 4.G#X\	48ddddLLL 48ddd\
.	48bbb\
.	48ggg\
.	48ggg#X\
.	48fffn\
.	48ccc#\
.	48ddd\
.	48bb\
.	48gg\
.	48gg#X\
.	48ffn\
.	48cc#\
.	48dd\
.	48b\
.	48g\
.	48g#X\
.	48fn\
.	48c#\JJJ
40G#XLLL 40BB\	4.f 4.d/
40BB-X\	.
40AA\	.
40GG#X\	.
40GGn\	.
40FF#\	.
40FFn\	.
40EE\	.
40EE-X\	.
40DD\	.
32CC#\	.
32CCn\	.
32BBB\	.
32BBB-X\JJJ	.
!!LO:LB:g=original
=52	=52
!LO:TX:t=P:problem=mixed beam	!
8AAL 8AAA/	16e 16c# 16G/
!	!LO:TUP:a:problem=klamra łukowa
.	48a\LLL
.	48ff#\
.	48aa\JJJ
!	!LO:TUP:a:problem=klamra łukowa
8d 8A\	48b-X\LLL
.	48ffn\
.	48gg#X\JJJ
!	!LO:TUP:a:problem=klamra łukowa
.	48bn\LLL
.	48ee\
.	48ggn\JJJ
!	!LO:TUP:a:problem=klamra łukowa
8g\J	48ccn\LLL
.	48dd#X\
.	48ff\JJJ
!	!LO:TUP:a:problem=klamra łukowa
.	48cc#X\LLL
.	48ee\
.	48gg\JJJ
!	!LO:TUP:a:problem=klamra łukowa
8AA\L	48dd#\LLL
.	48dd#\
.	48ff\JJJ
!	!LO:TUP:a:problem=klamra łukowa
.	48a\LLL
.	48ff\
.	48aa\JJJ
!	!LO:TUP:a:problem=klamra łukowa
8d 8A\	48b-X\LLL
.	48ffn\
.	48gg#X\JJJ
!	!LO:TUP:a:problem=klamra łukowa
.	48bn\LLL
.	48ee\
.	48ggn\JJJ
!	!LO:TUP:a:problem=klamra łukowa
8g\J	48ccn\LLL
.	48dd#X\
.	48ff\JJJ
!	!LO:TUP:a:problem=klamra łukowa
.	48cc#X\LLL
.	48ee\
.	48gg\JJJ
=53	=53
!LO:TX:t=P:problem=mixed beam	!LO:TUP:a:problem=klamra łukowa
8AAL 8AAA/	48dd\LLL
.	48dd\
.	48ff#\JJJ
!	!LO:TUP:a:problem=klamra łukowa
.	48dd\LLL
.	48ff#\
.	48ddd\JJJ
!	!LO:TUP:a:problem=klamra łukowa
8d 8F#\	48a\LLL
.	48dd\
.	48aa\JJJ
!	!LO:TUP:a:problem=klamra łukowa
.	48f#\LLL
.	48a\
.	48ff#\JJJ
!	!LO:TUP:a:problem=klamra łukowa
8A\J	48d\LLL
.	48f#\
.	48dd\JJJ
!	!LO:TUP:a:problem=klamra łukowa
.	48A\LLL
.	48d\
.	48a\JJJ
8GG\L	4b-X 4e-X 4B-X/
[8G\	.
8G]J 8AA\	8a 8c# 8A/
!!LO:LB:g=original
=54	=54
!LO:TX:t=P:problem=mixed beam	!
8DL 8DD/	16d 16F#/
.	64a\LLLL
.	64ff#\
.	64aa\
.	64ff#\JJJJ
8d 8A\	64b-X\LLLL
.	64ffn\
.	64gg#X\
.	64ff\JJJJ
.	64bn\LLLL
.	64ee\
.	64ggn\
.	64ee\JJJJ
8g\J	64ccn\LLLL
.	64dd#X\
.	64ff\
.	64dd#\JJJJ
.	64cc#X\LLLL
.	64ee\
.	64gg\
.	64ee\JJJJ
!LO:TX:t=P:problem=mixed beam	!
8DD/L	64dd#\LLLL
.	64dd#\
.	64ff\
.	64dd#\JJJJ
.	64a\LLLL
.	64ff\
.	64ddd\
.	64ff\JJJJ
8d 8A\	64b-X\LLLL
.	64gg\
.	64ccc#\
.	64gg\JJJJ
.	64bn\LLLL
.	64gg\
.	64bbn\
.	64gg\JJJJ
8gJ 8c#\	64ccn\LLLL
.	64gg\
.	64bb-X\
.	64gg\JJJJ
.	64cc#X\LLLL
.	64gg\
.	64aa\
.	64gg\JJJJ
=55	=55
!LO:TX:t=P:problem=mixed beam	!
8DL 8DD/	64dd\LLLL
.	64ff#\
.	64aa\
.	64ff#\JJJJ
.	64dd\LLLL
.	64aa\
.	64fff#\
.	64ddd\JJJJ
8d 8F#\	64a\LLLL
.	64ff#\
.	64ddd\
.	64aa\JJJJ
.	64f#\LLLL
.	64dd\
.	64aa\
.	64ff#\JJJJ
8A\J	64d\LLLL
.	64a\
.	64ff#\
.	64dd\JJJJ
.	64A\LLLL
.	64f#\
.	64dd\
.	64a\JJJJ
!LO:TX:t=P:problem=mixed beam	!
8GGL 8GGG/	4b-X 4e-X 4B-X/
8G\	.
8AAJ 8AAA/	8a 8c# 8G/
!!LO:LB:g=original
=56	=56
*	*^
!	!	!LO:TX:t=P:problem=mixed beam
8DD 8DDD\	8dL 8F#/	8.D\L
8ryy	8f# 8d/	.
.	.	16C#</L
8ryy	8f# 8d/	16D</
.	.	16F#</JJ
4.ryy	8f# 8d/	4A</
.	8f# 8d/	.
.	8f#J 8d/	16F#</LL
.	.	16D</JJ
*	*v	*v
=57	=57
8AA 8AAA\	8e 8d 8A/
8e>L 8d>\	16rcc
.	16g#X/LL
8e>J 8d>\	16a/
.	16cc#/JJ
8a>L 8e> 8c#>\	4ee/
8e> 8c#>\	.
8e>J 8c#>\	16cc#/LL
.	16a/JJ
=58	=58
8.EL 8.EE\	8bL 8a 8e\
.	8b 8a 8e\
16D#X\L	.
16E\	8b 8a 8e\
16G\JJ	.
4B\	8b 8g 8e\
.	8b 8g 8e\
16G\LL	8bJ 8g 8e\
16E\JJ	.
=59	=59
8BB 8BBB\	8b 8f# 8e\
8f#>L 8e>\	16rcc
.	16a#X/LL
8f#>J 8e>\	16b/
.	16dd/JJ
8b>L 8f#> 8d>\	8.ff#/L
8b> 8f#> 8d>\	.
.	16ee#X/L
8b>J 8f#> 8d>\	16ff#/
.	16ddd/JJ
!!LO:PB:g=original
=60	=60
8.E#XL 8.CC#\	8ccc#L 8gg#X 8b\
.	8ccc# 8gg# 8b\
16D##X\L	.
16E#\	8ccc#J 8gg# 8b\
16c#\JJ	.
8A#XL 8FF#\	8.eeL 8.a#X 8.e\
8e 8A#\	.
.	16dd#X\L
8A#J 8E#\	16ee\
.	16ccc#\JJ
=61	=61
8.D#XL 8.BBB/	8bbL 8ff# 8an\
.	8bb 8ff# 8a\
16C##X/L	.
16D#/	8bbJ 8ff# 8a\
16B/JJ	.
8GL 8EE\	8.ddL 8.g 8.d\
8d 8G\	.
.	16cc#\L
8GJ 8Dn\	16dd\
.	16bb\JJ
=62	=62
16C#LL 16AAA\	8aaL 8ee 8g\
16A\	.
16G\	8bb-X 8ee 8g\
16e\	.
16d\	8ggJ 8b-y 8e\
16b-X\JJ	.
16c#LL 16A\	8ee 8a 8e\
16a\JJ	.
8dL 8B-X\	16g\LL
.	16ee\
8B-J 8E\	16dd\
.	16bb-X\JJ
=63	=63
16C#LL 16AAA\	8aaL 8ee 8g\
16A\	.
16G\	8bb-X 8ee 8g\
16e\	.
16d\	8ggJ 8b-y 8e\
16b-X\JJ	.
16c#LL 16A\	8ee 8a 8e\
16a\JJ	.
8dL 8B-X\	16g\LL
.	16ee\
8B-J 8E\	16dd\
.	16bb-X\JJ
!!LO:LB:g=original
=64	=64
*^	*
8c# 8G 8AA\	8ryy	16cc#LL 16g\
.	.	16aa\JJ
8cc#L 8g/	[4A\	24gg\LL
.	.	24eee\
.	.	24gg\
8ccnJ 8f#/	.	24ff#\
.	.	24ddd#X\
.	.	24ff#\
8bL 8fn/	4.A\]	24ffn\
.	.	24dddn\
.	.	24ff\
8b-X 8e/	.	24ee\
.	.	24ccc#\
.	.	24ee\
8aJ 8d#X/	.	24dd#X\
.	.	24cccn\
.	.	24dd#\JJ
=65	=65	=65
8g#XL 8d/	4.A\	32dd\LLL
.	.	32bb\
.	.	32ffn\
.	.	32bb\JJJ
8gn 8c#/	.	32cc#\LLL
.	.	32bb-X\
.	.	32ee\
.	.	32bb-\JJJ
8f#J 8cn/	.	32ccn\LLL
.	.	32aa\
.	.	32ee-X\
.	.	32aa\JJJ
8fnL 8B/	4.A\	32b\LLL
.	.	32gg#X\
.	.	32dd\
.	.	32gg#\JJJ
8e 8B-X/	.	32b-X\LLL
.	.	32ggn\
.	.	32cc#X\
.	.	32gg\JJJ
8cJ 8G 8AA/	.	32g\LLL
.	.	32ee-\
.	.	32a\
.	.	32ee-\JJJ
*v	*v	*
=66	=66
8F#L 8AA 8DD\	32d\LLL
.	32dd\
.	32f#\
.	32dd\
8A 8AA\	32a\
.	32dd\
.	32f#\
.	32dd\
8AJ 8D\	32d\
.	32dd\
.	32f#\
.	32dd\JJJ
!LO:TX:t=P:problem=mixed beam	!
8DD/L	32c#\LLL
.	32cc#\
.	32g\
.	32cc#\
8B-X 8BB-X\	32b-X\
.	32cc#\
.	32g\
.	32cc#\
8B-J 8C#\	32c#\
.	32cc#\
.	32g\
.	32cc#\JJJ
!!LO:LB:g=original
=67	=67
8DD/	32d\LLL
.	32dd\
.	32f#\
.	32dd\
8F#L 8AA\	32a\
.	32dd\
.	32cc#\
.	32dd\
8dJ 8F#\	32ff#\
.	32dd\
.	32aa\
.	32ff#\JJJ
*	*tuplet
!	!LO:TUP:a:problem=klamra łukowa
8f# 8D\	48ddd\LLL
.	48aa\
.	48bb\
.	48aa\
.	48gg#X\
.	48aa\JJJ
*clefG2	*
!	!LO:TUP:a:problem=klamra łukowa
!	!LO:TX:b:t=↓
8ddL 8f#\	48fff#\LLL
.	48aa\
.	48bb\
.	48aa\
.	48gg#\
.	48aa\JJJ
16cc#L 16a\	64ggn\LLLL
.	64aa\
.	64eee\
.	64aa\
16dd\JJ	64ff#\
.	64aa\
.	64ddd\
.	64aa\JJJJ
*clefF4	*
=68	=68
*	*Xtuplet
8G\L	48eeLLL 48dd\
.	48eee 48ddd\
.	48eee 48ddd\
.	48eee 48ddd\
.	48eee 48ddd\
.	48eeeJJJ 48ddd\
8e 8G\	48eeeLLL 48ddd\
.	48ee 48dd\
.	48ee 48dd\
.	48ee 48dd\
.	48ee 48dd\
.	48eeJJJ 48dd\
8bJ 8d\	48eeLLL 48dd\
.	48e 48d\
.	48e 48d\
.	48e 48d\
.	48ee 48dd\
.	48eeJJJ 48dd\
!LO:TX:t=P:problem=mixed beam	!
8AAL 8AAA/	64a\LLLL
.	64ccc# 64gg\
.	64ff#\
.	64gg\
.	64ff#\
.	64gg\
.	64aa\
.	64gg\JJJJ
8c# 8G\	64a\LLLL
.	64ccc# 64ff#\
.	64ee#X\
.	64ff#\
.	64ee#\
.	64ff#\
.	64gg\
.	64ff#\JJJJ
8gJ 8c#\	64a\LLLL
.	64ccc# 64een\
.	64dd#X\
.	64ee\
.	64dd#\
.	64ee\
.	64ff#\
.	64ee\JJJJ
!!LO:LB:g=original
=69	=69
8F#L 8DD\	48dddLLL 48dd\
.	48ee\
.	48dd\
.	48cc#\
.	48dd\
.	48a\JJJ
8A 8F#\	48f#\LLL
.	48d\
.	48f#\
.	48a\
.	48f#\
.	48cc#\JJJ
8dJ 8G 8Fn\	48dd\LLL
.	48fn\
.	48cc#\
.	48dd\
.	48f\
.	48bb\JJJ
8f#L 8A 8D\	48aaLLL 48ff#\
.	48ddd\
.	48dd\
.	48dd\
.	48ff#\
.	48f#X\JJJ
*clefG2	*
!	!LO:TX:t=P:problem=mixed beam
8ddJ 8a\	48f#\LLL
.	48dd\
.	48d\
.	48d\
!	!LO:TX:a:t=ms
.	48f#\
.	48F#X</JJJ
*clefF4	*
8rGG	48F#</LLL
.	48d</
.	48D</
.	48D</
.	48F#</
.	48FF#</JJJ
=70	=70
8DL 8AA 8DD\	48d\LLL
.	48dd\
.	48f#\
.	48dd\
.	48a\
.	48dd\
8F# 8AA\	48dd\
.	48ddd\
.	48ff#\
.	48ddd\
.	48aa\
.	48ddd\
*	*8va
8dJ 8F#\	48ddd\
.	48dddd\
.	48fff#\
.	48dddd\
.	48aaa\
.	48dddd\JJJ
*	*X8va
8D 8DD/	48c#\LLL
.	48cc#\
.	48g\
.	48cc#\
.	48b-X\
.	48cc#\
8GL 8BB-X\	48cc#\
.	48ccc#\
.	48gg\
.	48ccc#\
.	48bb-X\
.	48ccc#\
*	*8va
8c#J 8G\	48ccc#\
.	48cccc#\
.	48ggg\
.	48cccc#\
.	48bbb-X\
.	48cccc#\JJJ
*	*X8va
!!LO:LB:g=original
=71	=71
8F# 8AA 8DD\	48d\LLL
.	48dd\
.	48f#\
.	48dd\
.	48a\
.	48dd\
*clefG2	*
16ddLL 16f# 16d/	48dd\
.	48ddd\
.	48ff#\
16cc# 16c#/	48ddd\
.	48aa\
.	48ccc#\JJJ
*	*8va
16dd 16f# 16d/	48ddd\LLL
.	48dddd\
.	48fff#\
16ff#JJ 16f#/	48dddd\
.	48aaa\
.	48dddd\JJJ
8.aaL 8.ff# 8.a\	48aaaaLLL 48ffff#\
.	48dddd\
.	48aaa\
.	48fff# 48ddd\
.	48aaa\
.	48aa\JJJ
*	*X8va
.	48aaaLLL 48fff#\
.	48ddd\
.	48aa\
16fff#L 16aa 16ff#\	48ff# 48dd\
.	48aa\
.	48a\JJJ
16eee 16aa 16ee\	48aaLLL 48ff#\
.	48dd\
.	48a\
16dddJJ 16dd\	48f# 48d\
.	48a\
.	48A\JJJ
*clefF4	*
=72	=72
8GL 8GG\	64ccc#LLLL 64ee 64dd\
.	64ddd\
.	64ccc#\
.	64ddd\
.	64bb 64ee 64dd\
.	64ccc#\
.	64bb\
.	64eee\
8e 8G\	64aa#X 64ee 64dd\
.	64bb\
.	64aa#\
.	64eee\
.	64bb 64ee 64dd\
.	64cccn\
.	64bb\
.	64eee 64ccc\
8bJ 8e 8d\	64ccc 64ee 64dd\
.	64ccc#X\
.	64cccn\
.	64ccc#X\
.	64ccc# 64ee 64dd\
.	64ddd\
.	64ccc#\
.	64ddd\JJJJ
!LO:TX:t=P:problem=mixed beam	!
8AAL 8AAA/	48dddLLL 48ee 48dd\
.	48ee 48dd\
.	48ee 48dd\
.	48ee 48dd\
.	48ee 48dd\
.	48eeJJJ 48dd\
8e 8d 8G\	48eeLLL 48dd\
.	48dd#X 48ddny\
.	48dd#X 48ddn\
.	48dd#X 48ddn\
.	48ee 48ddn\
.	48eeJJJ 48dd\
8c#J 8G 8AA\	48aa#LLL 48cc#\
.	48cc# 48g\
.	48cc# 48g\
.	48cc# 48g\
.	48cc# 48g\
.	48cc#JJJ 48g\
!!LO:LB:g=original
=73	=73
8DL 8DD\	64ddLLLL 64b-X 64g\
.	64cc#\
.	64dd\
.	64d\
.	64g\
.	64b-\
.	64cc#\
.	64dd\JJJJ
8d 8B-X\	64dddLLLL 64bb-X 64gg\
.	64ccc#\
.	64ddd\
.	64dd\
.	64gg\
.	64bb-\
.	64ccc#\
.	64ddd\JJJJ
*	*8va
8b-XJ 8d 8G\	64ddddLLLL 64bbb-X 64ggg\
.	64cccc#\
.	64dddd\
.	64ddd\
.	64ggg\
.	64bbb-\
.	64cccc#\
.	64dddd\JJJJ
8DL 8AA 8DD\	8aaaa 8dddd 8fff#\
*	*X8va
8d 8F#\	4r
8aJ 8d\	.
=74	=74
*	*^
8BBB\L	4.dd#X/	4.aTT\
8A 8D#X\	.	.
8d#XJ 8A\	.	.
.	32qqg#X\LLL	.
.	32qqa\JJJ	.
8BB\L	8dd#/L	56ccn\LLL
.	.	56ddn\
.	.	56cc\
.	.	56b\
.	.	56cc\
.	.	56dd\
.	.	56cc\JJJ
8A 8D#\	8dd#y/	56b\LLL
.	.	56cc\
.	.	56b\
.	.	56a#X\
.	.	56b\
.	.	56cc\
.	.	56b\JJJ
8d#J 8A\	8dd#/J	56an\LLL
.	.	56b\
.	.	56a\
.	.	56g#y\
.	.	56a\
.	.	56b\
.	.	56a\JJJ
*	*v	*v
=75	=75
.	32qqddn 32qqg#X/
!	!LO:N:vis=4
8EE\L	4.dTT\
*clefG2	*
8bb 8dd 8g#X\	.
8bbJ 8dd 8g#\	.
!LO:TX:t=P:problem=mixed beam	!
8E/L	56fnLLL 56d/
.	56gn/
.	56f/
.	56e/
.	56f/
.	56g/
.	56f/JJJ
8bb 8dd 8g#\	56eLLL 56d/
.	56f/
.	56e/
.	56d#X/
.	56e/
.	56f/
.	56e/JJJ
8bbJ 8dd 8g#\	56dn/LLL
.	56e/
.	56d/
.	56c#/
.	56d/
.	56e/
.	56d/JJJ
!!LO:PB:g=original
=76	=76
*clefF4	*
*	*^
!LO:TX:t=P:problem=mixed beam	!	!
8AAA/L	4.cc#/	4.gTT\
8G 8AA\	.	.
8c#J 8G\	.	.
.	32qqf#\LLL	.
.	32qqg\JJJ	.
8AA\L	8cc#/L	56b-X\LLL
.	.	56ccn\
.	.	56b-\
.	.	56a\
.	.	56b-\
.	.	56cc\
.	.	56b-\JJJ
8G 8C#\	8cc/	56a\LLL
.	.	56b-\
.	.	56a\
.	.	56g#X\
.	.	56a\
.	.	56b-\
.	.	56a\JJJ
8c#J 8G\	8cc/J	56gn\LLL
.	.	56a\
.	.	56g\
.	.	56f#\
.	.	56g\
.	.	56a\
.	.	56g\JJJ
*	*v	*v
=77	=77
!LO:TX:t=P:problem=mixed beam	!
.	32qqccn 32qqf#\
8DD/L	4.cnTT\
*clefG2	*
8aa 8ccn 8f#\	.
8aaJ 8cc 8f#\	.
8D/	56e-XLLL 56c/
.	56fn/
.	56e-/
.	56d/
.	56e-/
.	56f/
.	56e-/JJJ
8aaL 8cc 8f#\	56dLLL 56c/
.	56e-/
.	56d/
.	56c#X/
.	56d/
.	56e-/
.	56d/JJJ
8aaJ 8cc 8f#\	56cn/LLL
.	56d/
.	56c/
.	56B/
.	56c/
.	56d/
.	56c/JJJ
*clefF4	*
=78	=78
!LO:TX:t=P:problem=w źródle tryl bez kasownika	!
8E-XL 8EE-XTT\	8B-XL 8G/
8Dtt\	8b-X 8e-X 8G/
8C#tt\J	8b-J 8e- 8G/
!LO:TX:t=P:problem=w źródle tryl bez kasownika	!
4.BB-XTT\	8b-L 8a-X 8d 8A-X/
.	8b- 8g 8d 8A-/
.	8b-J 8fn 8d 8A-/
!!LO:LB:g=original
=79	=79
!LO:TX:t=P:problem=w źródle tryl bez kasownika	!
8E-XL 8EE-XTT\	8e-XL 8G/
8Dtt\	8b-X 8e-X 8G/
8CnTT\J	8b-J 8e- 8G/
4.BB-XTT\	8b-L 8a-X 8d 8A-X/
.	8b- 8g 8d 8A-/
.	8b-J 8fn 8d 8A-/
=80	=80
!	!LO:TX:t=P:problem=mixed beam
8E-XL 8EE-X\	8.b-XL 8.e-X 8.G/
*clefG2	*
8b-X 8g 8e-X\	.
.	16dd\L
8b-J 8g 8e-\	16ee-X\
.	16gg\JJ
8ee-XL 8b- 8g 8e-\	8.bb-XL 8.gg\
8ee- 8b- 8g 8e-\	.
.	16gggL 16gg\
8ee-J 8b- 8g 8e-\	16fffn 16gg\
.	16eee-XJJ 16gg\
=81	=81
!LO:TX:t=P:problem=mixed beam	!
8E-X/L	16eee-XLL 16aa-X\
.	16ddd 16aa-\
8dd 8cc-X 8a-X 8e\	16ccc#X 16aa-\
.	16ddd 16aa-\
8ddJ 8cc- 8a- 8e\	16eee- 16aa-\
.	16eeenJJ 16aa-\
*clefF4	*
8BB-X\L	16fffnLL 16aa-\
.	16aa- 16ddM\
*clefG2	*
8cc-X 8a-X 8d 8c-X\	16gg 16dd\
.	16aa- 16dd\
8cc-J 8a- 8d 8c-\	16ccc-X 16dd\
.	16ddJJ 16a-X\
*clefF4	*
=82	=82
8E-XL 8EE-X\	8.ee-XL 8.g\
8b-X 8g 8e-X 8B-X\	.
.	16dd\L
8b-J 8g 8e- 8B-\	16ee-\
.	16gg\JJ
*clefG2	*
!!LO:LB:g=original
8ee-XL 8b-X 8g 8e-X\	8.bb-XL 8.gg\
8ee- 8b- 8g 8e-\	.
.	16gggL 16gg\
8ee-J 8b- 8g 8e-\	16fffn 16gg\
.	16eee-XJJ 16gg\
*clefF4	*
=83	=83
8F#L 8FF#\	16eee-XLL 16aa-X\
.	16ddd 16aa-\
*clefG2	*
8dd 8cc-X 8a-X 8f# 8d\	16ccc#X 16aa-\
.	16ddd 16aa-\
8ddJ 8cc- 8a- 8f# 8d\	16eee- 16aa-\
.	16eeenJJ 16aa-\
*clefF4	*
8GG#XL 8GGG#X/	16fffnLL 16gg#X\
.	16bbn 16gg#m\
8D 8BB#X 8AA 8FF# 8DD/	16aa#X 16gg#\
.	16bb 16gg#\
8DJ 8BB# 8AA 8FF# 8DD/	16ddd 16gg#\
.	16gg#JJ 16dd 16g#X\
*clefF4	*
=84	=84
!LO:TX:t=P:problem=mixed beam	!
8AAL 8AAA/	8.aaL 8.dd 8.a\
8d 8F#\	.
.	16fff#L 16aa 16ff#\
8aJ 8d 8A\	16eee 16aa 16ee\
.	16dddJJ 16aa 16dd\
!LO:TX:t=P:problem=mixed beam	!
8AAL 8AAA/	8.aa#XL 8.dd 8.a#X\
8d 8F#\	.
.	16fff#L 16aa# 16ff#\
8a#XJ 8d 8A#X\	16eee 16aa# 16ee\
.	16dddJJ 16dd\
=85	=85
8AA\L	16ccc#XLL 16ee 16dd\
.	16bb 16ee 16dd\
8e 8G\	16aa#X 16ee 16dd\
.	16bb 16ee 16dd\
8bJ 8d\	16ccc# 16ee 16dd\
.	16dddJJ 16ee 16dd\
8AA\L	16fff#LL 16bb 16ee 16dd\
.	16eee 16bb 16ee 16dd\
8e 8G\	16ddd#X 16bb 16ee 16dd\
.	16eee 16bb 16ee 16dd\
8bJ 8e 8d\	16fff# 16bb 16ee 16dd\
.	16gggJJ 16bb 16ee 16dd\
!!LO:LB:g=original
=86	=86
!LO:TX:t=P:problem=mixed beam	!
8AAL 8AAA/	16ggg#XLL 16ccc# 16gg\
.	16aaa 16ccc# 16gg\
8c# 8G\	16ddd#X 16gg 16cc#\
.	16eee 16gg 16cc#\
8c#J 8G\	16cccn 16gg 16a\
.	16ccc#XJJ 16gg 16a\
8AA\L	16ccc#LL 16gg 16b\
.	16ddd# 16gg 16b\
8d 8G\	16aa 16dd 16g\
.	16bb-X 16dd 16g\
8dJ 8B-X\	16ff# 16dd 16g\
.	16ggJJ 16dd 16g\
=87	=87
!LO:TX:t=P:problem=mixed beam	!
8AAA/L	16gg#XLL 16cc# 16g\
.	16aa 16cc# 16g\
8G 8AA\	16dd#X 16g 16c#\
.	16ee 16g 16c#\
8c#J 8G\	16ccn 16g 16A\
.	16cc#XJJ 16g 16A\
8AAA/L	16cc#LL 16g 16B-X\
.	16dd# 16g 16B-\
8D 8GG/	16a 16d 16G\
.	16b-X 16d 16G\
8DJ 8BB-X/	16f# 16d 16G\
.	16gJJ 16d 16G\
=88	=88
8C# 8AAA/	16g#XLL 16c# 16G\
.	16a\JJ
8AAAA/	4r
8AAAA/	.
*	*8va
320%3AAAA/LLLLL	320%3eeeeLLLLL 320%3ggg 320%3ccc#\
320%3BBBB/	320%3dddd#X\
320%3CCCn/	320%3ddddn\
320%3CCC#X/	320%3cccc#\
320%3DDD/	320%3ccccn\
320%3DDD#X/	320%3bbb\
320%3EEE/	320%3bbb-X\
*	*X8va
!	!LO:TX:a:t=loco
320%3FFFn/	320%3aaa\
320%3FFF#X/	320%3ggg#X\
320%3GGG/	320%3gggn\
320%3GGG#X/	320%3fff#\
320%3AAA/	320%3fffn\
320%3BBB-X/	320%3eee\
320%3BBBn/	320%3ddd#X\
320%3CCn/	320%3dddn\
320%3CC#X/	320%3ccc#y\
320%3DD/	320%3cccn\
320%3DD#X/	320%3bb\
320%3EE/JJJJJ	320%3bb-X\JJJJJ
!!LO:LB:g=original
320%3FFny\LLLLL	320%3aa\LLLLL
320%3FF#X\	320%3gg#X\
320%3GG\	320%3ggn\
320%3GG#X\	320%3ff#\
320%3AA\	320%3ffn\
320%3BB-X\	320%3ee\
320%3BBn\	320%3dd#X\
320%3Cn\	320%3ddn\
320%3C#X\	320%3cc#\
320%3D\	320%3ccn\
320%3D#X\	320%3b\
320%3E\	320%3b-X\
320%3Fn\	320%3a\
320%3F#X\	320%3g#\
320%3G\	320%3gn\
320%3G#X\	320%3f#\
320%3A\	320%3fn\
320%3B-X\	320%3e\
320%3Bn\	320%3d#X\
320%3cn\	320%3dn\
320%3c#X\JJJJJ	320%3c#\JJJJJ
=89	=89
!LO:TX:t=P:problem=mixed beam	!
8DDL 8DDD/	8dd 8f# 8d\
8F# 8AA\	8ddL 8aTT</
8cnJ 8F#\	8ddJ 8a#Xtt</
8DD\L	8ggL 8bTT</
8G 8BB-X\	8gg 8ccnTT</
8c#XJ 8G\	8ggJ 8cc#Xtt</
=90	=90
!LO:TX:t=P:problem=mixed beam	!
8DL 8DD/	8ff# 8dd/
8f# 8A\	8dddL 8aaTT</
8ccnJ 8f#\	8dddJ 8aa#Xtt</
*	*8va
8D\	8gggL 8bbTT</
*clefG2	*
8gL 8B-X/	8ggg 8cccnTT</
8cc#XJ 8g/	8gggJ 8ccc#Xtt</
=91	=91
*^	*
!LO:TX:t=P:problem=mixed beam	!	!
8D/L	4.ryy	8fff# 8ddd\
*	*	*X8va
8aa 8dd 8f#\	.	8aaTT<\
8gg#XJ 8dd 8fn\	.	8gg#X 8ddTT<\
8aaL 8dd 8f\	4ryy	8aaaL 8dddTT</
!LO:TX:t=P:problem=skreślona nuta	!	!
8dd 8f\	.	8ddd 8aaTT</
8gJ 8fn\	8ddTT>/	8gg#X/J
*v	*v	*
*clefF4	*
!!LO:LB:g=original
=92	=92
8aL 8f#\	8aaL 8ddTT</
8d 8F#\	8dd 8aTT</
!LO:TX:t=P:problem=w źródle tryl bez kasownika	!
8dJ 8G#X 8FnTT\	8g#Xtt</J
8AL 8F\	8aL 8dTT</
8D 8FF#\	8d 8ATT</
!LO:TX:t=P:problem=w źródle tryl bez kasownika	!
8DJ 8GG#X 8FFnTT\	8G#X/J
=93	=93
8D 8AA 8DD\	8d 8A 8F#/
!	!LO:TX:t=P:problem=mixed beam
48DD\LLL	48D</LLL
48AA\	48E</
48D\	48F#</
48E\	48A</
48F#\	48d\
48A\	48e\
48d\	48f#\
48e\JJJ	48a\
*clefG2	*
48f#/LLL	48dd\
48a/	48ee\
48dd/	48ff#\
48ee/JJJ	48aa\JJJ
8ff#/	8ddd\
*clefF4	*
!	!LO:TX:t=P:problem=mixed beam
48DD\LLL	48D</LLL
48AA\	48E</
48D\	48F#</
48E\	48A</
48F#\	48d\
48A\	48e\
48d\	48f#\
48e\JJJ	48a\
*clefG2	*
48f#/LLL	48dd\
48a/	48ee\
48dd/	48ff#\
48ee/JJJ	48aa\JJJ
=94	=94
8ff#/	8ddd\
*clefF4	*
32DD\LLL	32D</LLL
32AA\	32E</
32D\	32F#</
32E\	32A</
32F#\	32d\
32A\	32e\
32d 32B\	32f#\
32eJJJ 32c#\	32a\
*clefG2	*
32f#\LLL	32dd\
32a\	32ee\
32dd\	32ff#\
32ee\	32aa\
32ff#\	32ddd\
32aa\	32eee\
32ddd\	32fff#\
32eee\JJJ	32aaa\JJJ
8fff#\L	8dddd\L
8dd 8a 8d\	8aaa 8ddd 8ff#\
*clefF4	*
8dJ 8A 8D\	8aaJ 8dd 8f#\
!!LO:PB:g=original
=95	=95
8DL 8AA 8DD/	4a 4d 4F#/
8DDD/	.
8DDD/J	8r
8DDD/	4r
4r	.
!	!LO:TX:b:t=Fine.
.	8r
==	==
*-	*-
!!!system-decoration: {(s1,s2)}
!!!RDF**kern: > = above
!!!RDF**kern: < = below
!!!ENC: Andrzej Kubiczek
!!!END: 2021-05-24
!!!ENC: Berenika Jozajtis
!!!END: 2021-05-07
